;FLAVOR:Marlin
;TIME:549
;Filament used: 0.124004m
;Layer height: 0.12
;MINX:97.546
;MINY:95.612
;MINZ:0.2
;MAXX:128.775
;MAXY:124.389
;MAXZ:25.44
;Generated with Cura_SteamEngine 4.4.1
M140 S50
M105
M190 S50
M104 S200
M105
M109 S200
M82 ;absolute extrusion mode
M201 X500.00 Y500.00 Z100.00 E5000.00 ;Setup machine max acceleration
M203 X500.00 Y500.00 Z10.00 E50.00 ;Setup machine max feedrate
M204 P500.00 R1000.00 T500.00 ;Setup Print/Retract/Travel acceleration
M205 X8.00 Y8.00 Z0.40 E5.00 ;Setup Jerk
M220 S100 ;Reset Feedrate
M221 S100 ;Reset Flowrate

G28 ;Home

G92 E0 ;Reset Extruder
G1 Z2.0 F3000 ;Move Z Axis up
G1 X10.1 Y20 Z0.28 F5000.0 ;Move to start position
G1 X10.1 Y200.0 Z0.28 F1500.0 E15 ;Draw the first line
G1 X10.4 Y200.0 Z0.28 F5000.0 ;Move to side a little
G1 X10.4 Y20 Z0.28 F1500.0 E30 ;Draw the second line
G92 E0 ;Reset Extruder
G1 Z2.0 F3000 ;Move Z Axis up

G92 E0
G92 E0
G1 F2700 E-5
;LAYER_COUNT:171
;LAYER:0
M107
G0 F6000 X101.468 Y100.201 Z0.2
;TYPE:SKIRT
G1 F2700 E0
G1 F1200 X102.51 Y99.277 E0.04632
G1 X102.797 Y99.053 E0.05843
G1 X103.471 Y98.566 E0.08609
G1 X103.743 Y98.385 E0.09695
G1 X104.545 Y97.899 E0.12814
G1 X105.386 Y97.484 E0.15934
G1 X106.259 Y97.141 E0.19053
G1 X107.001 Y96.915 E0.21633
G1 X107.432 Y96.8 E0.23117
G1 X108.188 Y96.627 E0.25696
G1 X109.126 Y96.446 E0.28874
G1 X111.482 Y95.966 E0.36871
G1 X111.632 Y95.937 E0.37379
G1 X112.34 Y95.803 E0.39775
G1 X113.269 Y95.668 E0.42898
G1 X114.205 Y95.612 E0.46016
G1 X115.102 Y95.634 E0.49001
G1 X115.332 Y95.649 E0.49767
G1 X115.848 Y95.695 E0.5149
G1 X116.256 Y95.741 E0.52856
G1 X117.183 Y95.886 E0.55977
G1 X117.957 Y96.07 E0.58623
G1 X118.304 Y96.166 E0.5982
G1 X118.695 Y96.282 E0.61177
G1 X119.001 Y96.379 E0.62244
G1 X119.882 Y96.7 E0.65363
G1 X120.676 Y97.067 E0.68272
G1 X120.921 Y97.192 E0.69187
G1 X121.252 Y97.368 E0.70434
G1 X121.595 Y97.558 E0.71738
G1 X122.395 Y98.047 E0.74857
G1 X123.066 Y98.534 E0.77614
G1 X123.319 Y98.733 E0.78685
G1 X123.615 Y98.974 E0.79954
G1 X123.872 Y99.191 E0.81073
G1 X124.562 Y99.826 E0.84192
G1 X125.096 Y100.401 E0.86802
G1 X125.275 Y100.608 E0.87712
G1 X125.552 Y100.942 E0.89155
G1 X125.793 Y101.244 E0.90441
G1 X126.346 Y102.001 E0.93559
G1 X126.754 Y102.663 E0.96145
G1 X126.906 Y102.93 E0.97167
G1 X127.12 Y103.323 E0.98655
G1 X127.291 Y103.654 E0.99894
G1 X127.685 Y104.505 E1.03013
G1 X128 Y105.368 E1.06069
G1 X128.091 Y105.654 E1.07067
G1 X128.179 Y105.943 E1.08072
G1 X128.279 Y106.29 E1.09273
G1 X128.5 Y107.201 E1.12391
G1 X128.625 Y107.982 E1.15022
G1 X128.658 Y108.248 E1.15913
G1 X128.702 Y108.66 E1.17291
G1 X128.735 Y109.044 E1.18573
G1 X128.775 Y109.981 E1.21693
G1 X128.739 Y110.871 E1.24655
G1 X128.711 Y111.218 E1.25813
G1 X128.678 Y111.562 E1.26962
G1 X128.641 Y111.891 E1.28064
G1 X128.497 Y112.818 E1.31184
G1 X128.3 Y113.639 E1.33992
G1 X128.23 Y113.888 E1.34852
G1 X128.129 Y114.225 E1.36022
G1 X128.008 Y114.608 E1.37358
G1 X127.688 Y115.489 E1.40476
G1 X127.311 Y116.306 E1.43468
G1 X127.182 Y116.558 E1.4441
G1 X127.03 Y116.845 E1.4549
G1 X126.853 Y117.167 E1.46712
G1 X126.366 Y117.969 E1.49833
G1 X125.889 Y118.63 E1.52544
G1 X125.677 Y118.902 E1.53691
G1 X125.391 Y119.254 E1.552
G1 X125.179 Y119.504 E1.5629
G1 X124.542 Y120.193 E1.59411
G1 X123.974 Y120.719 E1.61986
G1 X123.763 Y120.901 E1.62913
G1 X123.423 Y121.183 E1.64382
G1 X123.111 Y121.431 E1.65707
G1 X122.352 Y121.983 E1.68829
G1 X121.666 Y122.403 E1.71504
G1 X121.414 Y122.545 E1.72466
G1 X121.029 Y122.752 E1.7392
G1 X120.701 Y122.92 E1.75146
G1 X119.848 Y123.312 E1.78268
G1 X119.118 Y123.581 E1.80856
G1 X118.847 Y123.67 E1.81804
G1 X118.452 Y123.791 E1.83178
G1 X118.09 Y123.895 E1.84431
G1 X117.179 Y124.116 E1.87549
G1 X116.35 Y124.246 E1.9034
G1 X116.013 Y124.286 E1.91469
G1 X115.635 Y124.325 E1.92733
G1 X115.325 Y124.351 E1.93767
G1 X114.388 Y124.389 E1.96886
G1 X113.451 Y124.347 E2.00006
G1 X112.713 Y124.258 E2.02478
G1 X112.437 Y124.215 E2.03407
G1 X111.992 Y124.136 E2.04911
G1 X111.78 Y124.094 E2.05629
G1 X111.721 Y124.082 E2.0583
G1 X109.047 Y123.537 E2.14906
G1 X107.874 Y123.305 E2.18883
G1 X106.76 Y123.023 E2.22705
G1 X106.54 Y122.955 E2.23471
G1 X105.656 Y122.641 E2.26591
G1 X105.172 Y122.43 E2.28347
G1 X104.986 Y122.344 E2.29029
G1 X104.152 Y121.915 E2.32148
G1 X103.358 Y121.416 E2.35267
G1 X102.609 Y120.851 E2.38388
G1 X102.098 Y120.403 E2.40648
G1 X101.844 Y120.166 E2.41804
G1 X101.247 Y119.564 E2.44624
G1 X101.089 Y119.392 E2.454
G1 X100.628 Y118.857 E2.47749
G1 X100.482 Y118.676 E2.48523
G1 X99.925 Y117.922 E2.51641
G1 X99.528 Y117.288 E2.54129
G1 X99.303 Y116.9 E2.5562
G1 X98.868 Y116.07 E2.58737
G1 X98.496 Y115.182 E2.61939
G1 X98.348 Y114.78 E2.63364
G1 X98.062 Y113.887 E2.66483
G1 X97.942 Y113.405 E2.68135
G1 X97.862 Y113.051 E2.69342
G1 X97.718 Y112.296 E2.71898
G1 X97.677 Y112.029 E2.72797
G1 X97.565 Y110.932 E2.76464
G1 X97.546 Y110.568 E2.77677
G1 X97.555 Y109.262 E2.82021
G1 X97.587 Y108.783 E2.83617
G1 X97.69 Y107.851 E2.86736
G1 X97.794 Y107.271 E2.88696
G1 X97.883 Y106.844 E2.90147
G1 X98.257 Y105.49 E2.94819
G1 X98.382 Y105.129 E2.96089
G1 X98.749 Y104.207 E2.9939
G1 X98.85 Y103.983 E3.00207
G1 X99.384 Y102.948 E3.04081
G1 X99.535 Y102.69 E3.05075
G1 X100.043 Y101.901 E3.08196
G1 X100.588 Y101.193 E3.11168
G1 X100.837 Y100.895 E3.1246
G1 X101.468 Y100.201 E3.15579
G0 F6000 X101.764 Y100.471
G1 F1200 X102.756 Y99.592 E3.19988
G1 X103.043 Y99.368 E3.21198
G1 X103.693 Y98.899 E3.23864
G1 X103.965 Y98.718 E3.24951
G1 X104.753 Y98.242 E3.28013
G1 X105.579 Y97.836 E3.31074
G1 X106.437 Y97.503 E3.34135
G1 X107.104 Y97.301 E3.36453
G1 X107.535 Y97.186 E3.37937
G1 X108.263 Y97.019 E3.40421
G1 X109.262 Y96.827 E3.43805
G1 X111.562 Y96.358 E3.51612
G1 X111.707 Y96.33 E3.52103
G1 X112.415 Y96.196 E3.545
G1 X113.326 Y96.064 E3.57561
G1 X114.245 Y96.012 E3.60623
G1 X115.076 Y96.033 E3.63388
G1 X115.306 Y96.048 E3.64154
G1 X115.804 Y96.093 E3.65817
G1 X116.212 Y96.139 E3.67183
G1 X117.121 Y96.282 E3.70244
G1 X117.85 Y96.456 E3.72736
G1 X118.197 Y96.552 E3.73934
G1 X118.574 Y96.664 E3.75242
G1 X118.88 Y96.761 E3.7631
G1 X119.745 Y97.077 E3.79373
G1 X120.494 Y97.423 E3.82117
G1 X120.739 Y97.548 E3.83031
G1 X121.058 Y97.718 E3.84234
G1 X121.401 Y97.908 E3.85538
G1 X122.187 Y98.388 E3.88601
G1 X122.818 Y98.848 E3.91198
G1 X123.071 Y99.047 E3.92269
G1 X123.357 Y99.28 E3.93496
G1 X123.614 Y99.497 E3.94615
G1 X124.29 Y100.121 E3.97674
G1 X124.793 Y100.663 E4.00134
G1 X124.972 Y100.87 E4.01044
G1 X125.239 Y101.191 E4.02433
G1 X125.48 Y101.493 E4.03718
G1 X126.023 Y102.237 E4.06781
G1 X126.407 Y102.861 E4.09218
G1 X126.559 Y103.128 E4.1024
G1 X126.765 Y103.507 E4.11675
G1 X126.936 Y103.838 E4.12914
G1 X127.322 Y104.673 E4.15974
G1 X127.619 Y105.489 E4.18862
G1 X127.71 Y105.775 E4.1986
G1 X127.794 Y106.054 E4.20829
G1 X127.894 Y106.401 E4.2203
G1 X128.111 Y107.296 E4.25093
G1 X128.228 Y108.031 E4.27569
G1 X128.261 Y108.297 E4.2846
G1 X128.303 Y108.694 E4.29788
G1 X128.336 Y109.078 E4.3107
G1 X128.375 Y109.998 E4.34132
G1 X128.341 Y110.839 E4.36932
G1 X128.313 Y111.186 E4.3809
G1 X128.281 Y111.518 E4.39199
G1 X128.244 Y111.847 E4.403
G1 X128.101 Y112.756 E4.43361
G1 X127.914 Y113.531 E4.46013
G1 X127.844 Y113.78 E4.46873
G1 X127.748 Y114.104 E4.47997
G1 X127.627 Y114.487 E4.49333
G1 X127.311 Y115.352 E4.52396
G1 X126.955 Y116.124 E4.55223
G1 X126.826 Y116.376 E4.56165
G1 X126.679 Y116.652 E4.57205
G1 X126.502 Y116.974 E4.58427
G1 X126.024 Y117.761 E4.61489
G1 X125.574 Y118.384 E4.64046
G1 X125.362 Y118.656 E4.65193
G1 X125.086 Y118.996 E4.66649
G1 X124.874 Y119.246 E4.67739
G1 X124.248 Y119.921 E4.70801
G1 X123.712 Y120.417 E4.7323
G1 X123.501 Y120.599 E4.74157
G1 X123.174 Y120.87 E4.7557
G1 X122.862 Y121.118 E4.76895
G1 X122.117 Y121.659 E4.79957
G1 X121.47 Y122.055 E4.8248
G1 X121.218 Y122.197 E4.83443
G1 X120.846 Y122.396 E4.84846
G1 X120.518 Y122.564 E4.86071
G1 X119.681 Y122.948 E4.89134
G1 X118.993 Y123.201 E4.91572
G1 X118.722 Y123.29 E4.92521
G1 X118.342 Y123.407 E4.93844
G1 X117.98 Y123.511 E4.95096
G1 X117.085 Y123.726 E4.98158
G1 X116.302 Y123.849 E5.00794
G1 X115.965 Y123.889 E5.01923
G1 X115.602 Y123.926 E5.03136
G1 X115.292 Y123.952 E5.04171
G1 X114.372 Y123.989 E5.07233
G1 X113.452 Y123.946 E5.10297
G1 X112.774 Y123.863 E5.12569
G1 X112.498 Y123.82 E5.13498
G1 X112.07 Y123.744 E5.14943
G1 X111.858 Y123.702 E5.15662
G1 X111.801 Y123.69 E5.15856
G1 X109.124 Y123.144 E5.24943
G1 X109.124 Y123.145 E5.24946
G1 X107.951 Y122.913 E5.28923
G1 X106.878 Y122.641 E5.32605
G1 X106.658 Y122.573 E5.33371
G1 X105.791 Y122.263 E5.36433
G1 X105.339 Y122.067 E5.38072
G1 X105.153 Y121.981 E5.38753
G1 X104.335 Y121.559 E5.41815
G1 X103.557 Y121.067 E5.44877
G1 X102.824 Y120.51 E5.47939
G1 X102.371 Y120.11 E5.49949
G1 X102.117 Y119.873 E5.51104
G1 X101.542 Y119.294 E5.53818
G1 X101.384 Y119.122 E5.54595
G1 X100.94 Y118.606 E5.56859
G1 X100.794 Y118.425 E5.57632
G1 X100.247 Y117.684 E5.60696
G1 X99.874 Y117.088 E5.63034
G1 X99.649 Y116.7 E5.64526
G1 X99.222 Y115.884 E5.67589
G1 X98.872 Y115.044 E5.70616
G1 X98.724 Y114.642 E5.72041
G1 X98.443 Y113.765 E5.75104
G1 X98.332 Y113.317 E5.76639
G1 X98.252 Y112.963 E5.77846
G1 X98.114 Y112.235 E5.8031
G1 X98.073 Y111.968 E5.81209
G1 X97.964 Y110.912 E5.8474
G1 X97.945 Y110.548 E5.85952
G1 X97.955 Y109.288 E5.90143
G1 X97.987 Y108.809 E5.9174
G1 X98.088 Y107.894 E5.94801
G1 X98.186 Y107.353 E5.9663
G1 X98.275 Y106.926 E5.98081
G1 X98.635 Y105.621 E6.02583
G1 X98.76 Y105.26 E6.03854
G1 X99.114 Y104.371 E6.07037
G1 X99.215 Y104.147 E6.07854
G1 X99.73 Y103.15 E6.11586
G1 X99.881 Y102.892 E6.1258
G1 X100.38 Y102.118 E6.15643
G1 X100.895 Y101.449 E6.18451
G1 X101.144 Y101.151 E6.19743
G1 X101.764 Y100.471 E6.22804
G0 F6000 X102.06 Y100.741
G1 F1200 X103.002 Y99.907 E6.26988
G1 X103.289 Y99.683 E6.28199
G1 X103.914 Y99.232 E6.30763
G1 X104.186 Y99.051 E6.31849
G1 X104.96 Y98.585 E6.34854
G1 X105.771 Y98.188 E6.37858
G1 X106.614 Y97.865 E6.4086
G1 X107.207 Y97.688 E6.42918
G1 X107.638 Y97.573 E6.44402
G1 X108.339 Y97.412 E6.46794
G1 X109.321 Y97.223 E6.5012
G1 X111.642 Y96.75 E6.57999
G1 X111.781 Y96.723 E6.5847
G1 X112.489 Y96.589 E6.60866
G1 X113.383 Y96.46 E6.63871
G1 X114.285 Y96.412 E6.66875
G1 X115.05 Y96.433 E6.6942
G1 X115.28 Y96.448 E6.70187
G1 X115.759 Y96.49 E6.71786
G1 X116.167 Y96.536 E6.73152
G1 X117.059 Y96.677 E6.76155
G1 X117.744 Y96.841 E6.78498
G1 X118.091 Y96.937 E6.79696
G1 X118.453 Y97.045 E6.80952
G1 X118.759 Y97.142 E6.8202
G1 X119.607 Y97.453 E6.85024
G1 X120.313 Y97.779 E6.8761
G1 X120.558 Y97.904 E6.88525
G1 X120.865 Y98.067 E6.89681
G1 X121.208 Y98.257 E6.90985
G1 X121.977 Y98.73 E6.93988
G1 X122.571 Y99.163 E6.96433
G1 X122.824 Y99.362 E6.97504
G1 X123.098 Y99.586 E6.98681
G1 X123.355 Y99.803 E6.99799
G1 X124.019 Y100.415 E7.02803
G1 X124.49 Y100.924 E7.05109
G1 X124.669 Y101.131 E7.0602
G1 X124.927 Y101.441 E7.07361
G1 X125.168 Y101.743 E7.08646
G1 X125.699 Y102.473 E7.11648
G1 X126.059 Y103.059 E7.13936
G1 X126.211 Y103.326 E7.14958
G1 X126.409 Y103.69 E7.16336
G1 X126.58 Y104.021 E7.17575
G1 X126.959 Y104.841 E7.2058
G1 X127.238 Y105.61 E7.23301
G1 X127.329 Y105.896 E7.24299
G1 X127.41 Y106.164 E7.2523
G1 X127.51 Y106.511 E7.26431
G1 X127.722 Y107.389 E7.29435
G1 X127.831 Y108.08 E7.31762
G1 X127.864 Y108.346 E7.32653
G1 X127.905 Y108.729 E7.33935
G1 X127.938 Y109.113 E7.35216
G1 X127.975 Y110.015 E7.38219
G1 X127.942 Y110.806 E7.40852
G1 X127.914 Y111.153 E7.4201
G1 X127.883 Y111.473 E7.43079
G1 X127.846 Y111.802 E7.44181
G1 X127.706 Y112.694 E7.47184
G1 X127.529 Y113.422 E7.49676
G1 X127.459 Y113.671 E7.50536
G1 X127.366 Y113.984 E7.51622
G1 X127.245 Y114.367 E7.52958
G1 X126.935 Y115.215 E7.55961
G1 X126.599 Y115.942 E7.58625
G1 X126.47 Y116.194 E7.59566
G1 X126.329 Y116.459 E7.60565
G1 X126.152 Y116.781 E7.61787
G1 X125.682 Y117.553 E7.64793
G1 X125.258 Y118.138 E7.67196
G1 X125.046 Y118.41 E7.68343
G1 X124.78 Y118.737 E7.69745
G1 X124.568 Y118.987 E7.70835
G1 X123.954 Y119.649 E7.73838
G1 X123.451 Y120.114 E7.76116
G1 X123.24 Y120.296 E7.77043
G1 X122.925 Y120.557 E7.78404
G1 X122.613 Y120.805 E7.79729
G1 X121.882 Y121.335 E7.82733
G1 X121.273 Y121.706 E7.85104
G1 X121.021 Y121.848 E7.86066
G1 X120.664 Y122.04 E7.87415
G1 X120.336 Y122.208 E7.8864
G1 X119.515 Y122.584 E7.91644
G1 X118.869 Y122.821 E7.93932
G1 X118.598 Y122.91 E7.94881
G1 X118.231 Y123.022 E7.96157
G1 X117.869 Y123.126 E7.9741
G1 X116.991 Y123.337 E8.00413
G1 X116.255 Y123.452 E8.02891
G1 X115.918 Y123.492 E8.0402
G1 X115.568 Y123.527 E8.0519
G1 X115.258 Y123.553 E8.06224
G1 X114.356 Y123.589 E8.09227
G1 X113.454 Y123.544 E8.12231
G1 X112.836 Y123.467 E8.14302
G1 X112.56 Y123.424 E8.15231
G1 X112.148 Y123.352 E8.16622
G1 X111.936 Y123.31 E8.17341
G1 X111.88 Y123.298 E8.17531
G1 X109.202 Y122.752 E8.26622
G1 X108.029 Y122.52 E8.30599
G1 X106.996 Y122.259 E8.34143
G1 X106.776 Y122.191 E8.34908
G1 X105.926 Y121.886 E8.37912
G1 X105.507 Y121.704 E8.39431
G1 X105.321 Y121.618 E8.40113
G1 X104.519 Y121.203 E8.43116
G1 X103.757 Y120.719 E8.46119
G1 X103.04 Y120.169 E8.49124
G1 X102.643 Y119.818 E8.50887
G1 X102.389 Y119.581 E8.52042
G1 X101.836 Y119.023 E8.54655
G1 X101.678 Y118.851 E8.55432
G1 X101.251 Y118.355 E8.57609
G1 X101.105 Y118.174 E8.58382
G1 X100.57 Y117.447 E8.61385
G1 X100.22 Y116.887 E8.63581
G1 X99.995 Y116.499 E8.65073
G1 X99.577 Y115.698 E8.68078
G1 X99.247 Y114.906 E8.70932
G1 X99.099 Y114.504 E8.72356
G1 X98.722 Y113.228 E8.76782
G1 X98.642 Y112.874 E8.77989
G1 X98.509 Y112.174 E8.80359
G1 X98.468 Y111.907 E8.81257
G1 X98.364 Y110.891 E8.84654
G1 X98.345 Y110.527 E8.85866
G1 X98.354 Y109.315 E8.89898
G1 X98.386 Y108.836 E8.91494
G1 X98.486 Y107.939 E8.94496
G1 X98.578 Y107.435 E8.962
G1 X98.667 Y107.008 E8.97651
G1 X99.013 Y105.752 E9.01984
G1 X99.138 Y105.391 E9.03255
G1 X99.479 Y104.535 E9.06319
G1 X99.58 Y104.311 E9.07137
G1 X100.075 Y103.352 E9.10726
G1 X100.226 Y103.094 E9.1172
G1 X100.716 Y102.335 E9.14725
G1 X101.202 Y101.706 E9.17369
G1 X101.451 Y101.408 E9.18661
G1 X102.06 Y100.741 E9.21665
G1 F2700 E4.21665
;MESH:bell_connector.stl
G0 F6000 X113.151 Y109.73
G0 X112.111 Y109.525
G0 X112.16 Y110.454
G0 X112.297 Y110.91
G0 X112.516 Y111.323
G0 X112.813 Y111.684
G0 X113.213 Y112.002
G0 X113.622 Y112.212
G0 X113.874 Y112.284
G0 X114.486 Y112.352
G0 X114.497 Y112.241
;TYPE:WALL-OUTER
G1 F2700 E9.21665
G1 F1200 X114.894 Y112.202 E9.22991
G1 X114.976 Y112.185 E9.2327
G1 X115.354 Y112.071 E9.24583
G1 X115.742 Y111.863 E9.26047
G1 X116.082 Y111.583 E9.27512
G1 X116.36 Y111.245 E9.28968
G1 X116.567 Y110.858 E9.30428
G1 X116.658 Y110.56 E9.31464
G1 X116.699 Y110.399 E9.32016
G1 X116.734 Y109.966 E9.33461
G1 X116.694 Y109.563 E9.34808
G1 X116.567 Y109.142 E9.36271
G1 X116.36 Y108.755 E9.37731
G1 X116.109 Y108.449 E9.39047
G1 X116.057 Y108.395 E9.39296
G1 X115.741 Y108.137 E9.40653
G1 X115.372 Y107.939 E9.42046
G1 X114.935 Y107.802 E9.43569
G1 X114.519 Y107.761 E9.4496
G1 X114.027 Y107.812 E9.46605
G1 X113.609 Y107.946 E9.48065
G1 X113.251 Y108.137 E9.49414
G1 X112.912 Y108.416 E9.50874
G1 X112.633 Y108.755 E9.52335
G1 X112.426 Y109.142 E9.53795
G1 X112.299 Y109.563 E9.55257
G1 X112.256 Y110 E9.56718
G1 X112.298 Y110.428 E9.58148
G1 X112.426 Y110.857 E9.59637
G1 X112.633 Y111.245 E9.611
G1 X112.912 Y111.585 E9.62562
G1 X113.186 Y111.809 E9.6374
G1 X113.287 Y111.883 E9.64156
G1 X113.673 Y112.082 E9.656
G1 X114.094 Y112.202 E9.67056
G1 X114.497 Y112.241 E9.68403
G0 F6000 X114.497 Y112.681
G1 F2700 E4.68403
G0 F6000 X114.497 Y112.441
G0 X113.789 Y112.256
G0 X113.069 Y111.96
G0 X112.917 Y112.701
G0 X109.853 Y112.134
G0 X109.756 Y112.221
G1 F2700 E9.68403
G1 F1200 X109.74 Y112.172 E9.68575
G1 X109.416 Y111.919 E9.69942
G1 X109.182 Y111.639 E9.71155
G1 X108.991 Y111.298 E9.72455
G1 X108.843 Y110.895 E9.73883
G1 X108.752 Y110.457 E9.75371
G1 X108.721 Y110 E9.76895
G1 X108.752 Y109.543 E9.78418
G1 X108.843 Y109.105 E9.79906
G1 X108.992 Y108.699 E9.81345
G1 X109.182 Y108.361 E9.82634
G1 X109.416 Y108.081 E9.83848
G1 X109.675 Y107.879 E9.8494
G1 X110.025 Y107.718 E9.86222
G1 X110.038 Y107.679 E9.86358
G1 X110.255 Y107.647 E9.87088
G1 X114.397 Y106.802 E10.01148
