;FLAVOR:Marlin
;TIME:8723
;Filament used: 13.4307m
;Layer height: 0.35
;MINX:18.04
;MINY:28.71
;MINZ:0.35
;MAXX:216.96
;MAXY:206.29
;MAXZ:8.4
;Generated with Cura_SteamEngine 4.5.0
M140 S50
M105
M190 S50
M104 S200
M105
M109 S200
M82 ;absolute extrusion mode
; Ender 3 Custom Start G-code
G92 E0 ; Reset Extruder
G28 ; Home all axes
G1 Z2.0 F3000 ; Move Z Axis up little to prevent scratching of Heat Bed
G1 X0.1 Y20 Z0.3 F5000.0 ; Move to start position
G1 X0.1 Y200.0 Z0.3 F1500.0 E15 ; Draw the first line
G1 X0.4 Y200.0 Z0.3 F5000.0 ; Move to side a little
G1 X0.4 Y20 Z0.3 F1500.0 E30 ; Draw the second line
G92 E0 ; Reset Extruder
G1 Z2.0 F3000 ; Move Z Axis up little to prevent scratching of Heat Bed
G1 X5 Y20 Z0.3 F5000.0 ; Move over to prevent blob squish
G92 E0
G92 E0
G1 F2700 E-5
;LAYER_COUNT:24
;LAYER:0
M107
;MESH:node_arr_3_4.stl
G0 F9000 X84.7 Y206.29 Z0.35
;TYPE:WALL-OUTER
G1 F2700 E0
G1 F2100 X84.7 Y162.69 E2.53775
G1 X150.3 Y162.69 E6.35601
G1 X150.3 Y206.29 E8.89376
G1 X84.7 Y206.29 E12.71202
G0 F9000 X85.09 Y205.9
;TYPE:SKIN
G1 F2100 X85.09 Y163.08 E15.57822
G1 X149.91 Y163.08 E19.91702
G1 X149.91 Y205.9 E22.78322
G1 X85.09 Y205.9 E27.12201
G0 F9000 X85.813 Y205.739
G1 F2100 X85.249 Y205.174 E27.17545
G0 F9000 X85.249 Y204.609
G1 F2100 X86.379 Y205.739 E27.28241
G0 F9000 X86.945 Y205.739
G1 F2100 X85.249 Y204.043 E27.44296
G0 F9000 X85.249 Y203.477
G1 F2100 X87.51 Y205.739 E27.65704
G0 F9000 X88.076 Y205.739
G1 F2100 X85.249 Y202.912 E27.92465
G0 F9000 X85.249 Y202.346
G1 F2100 X88.642 Y205.739 E28.24584
G0 F9000 X89.207 Y205.739
G1 F2100 X85.249 Y201.78 E28.62055
G0 F9000 X85.249 Y201.215
G1 F2100 X89.773 Y205.739 E29.0488
G0 F9000 X90.339 Y205.739
G1 F2100 X85.249 Y200.649 E29.53063
G0 F9000 X85.249 Y200.083
G1 F2100 X90.904 Y205.739 E30.06599
G0 F9000 X91.47 Y205.739
G1 F2100 X85.249 Y199.517 E30.65493
G0 F9000 X85.249 Y198.952
G1 F2100 X92.036 Y205.739 E31.2974
G0 F9000 X92.601 Y205.739
G1 F2100 X85.249 Y198.386 E31.9934
G0 F9000 X85.249 Y197.82
G1 F2100 X93.167 Y205.739 E32.74298
G0 F9000 X93.733 Y205.739
G1 F2100 X85.249 Y197.255 E33.54609
G0 F9000 X85.249 Y196.689
G1 F2100 X94.299 Y205.739 E34.40278
G0 F9000 X94.864 Y205.739
G1 F2100 X85.249 Y196.123 E35.313
G0 F9000 X85.249 Y195.558
G1 F2100 X95.43 Y205.739 E36.27676
G0 F9000 X95.996 Y205.739
G1 F2100 X85.249 Y194.992 E37.29409
G0 F9000 X85.249 Y194.426
G1 F2100 X96.561 Y205.739 E38.36495
G0 F9000 X97.127 Y205.739
G1 F2100 X85.249 Y193.861 E39.48934
G0 F9000 X85.249 Y193.295
G1 F2100 X97.693 Y205.739 E40.66731
G0 F9000 X98.258 Y205.739
G1 F2100 X85.249 Y192.729 E41.89882
G0 F9000 X85.249 Y192.164
G1 F2100 X98.824 Y205.739 E43.18385
G0 F9000 X99.39 Y205.739
G1 F2100 X85.249 Y191.598 E44.52246
G0 F9000 X85.249 Y191.032
G1 F2100 X99.955 Y205.739 E45.91461
G0 F9000 X100.521 Y205.739
G1 F2100 X85.249 Y190.466 E47.36033
G0 F9000 X85.249 Y189.901
G1 F2100 X101.087 Y205.739 E48.85959
G0 F9000 X101.652 Y205.739
G1 F2100 X85.249 Y189.335 E50.41237
G0 F9000 X85.249 Y188.769
G1 F2100 X102.218 Y205.739 E52.01873
G0 F9000 X102.784 Y205.739
G1 F2100 X85.249 Y188.204 E53.67863
G0 F9000 X85.249 Y187.638
G1 F2100 X103.35 Y205.739 E55.3921
G0 F9000 X103.915 Y205.739
G1 F2100 X85.249 Y187.072 E57.15911
G0 F9000 X85.249 Y186.507
G1 F2100 X104.481 Y205.739 E58.97964
G0 F9000 X105.047 Y205.739
G1 F2100 X85.249 Y185.941 E60.85376
G0 F9000 X85.249 Y185.375
G1 F2100 X105.612 Y205.739 E62.78141
G0 F9000 X106.178 Y205.739
G1 F2100 X85.249 Y184.81 E64.76258
G0 F9000 X85.249 Y184.244
G1 F2100 X106.744 Y205.739 E66.79734
G0 F9000 X107.309 Y205.739
G1 F2100 X85.249 Y183.678 E68.88563
G0 F9000 X85.249 Y183.113
G1 F2100 X107.875 Y205.739 E71.02745
G0 F9000 X108.441 Y205.739
G1 F2100 X85.249 Y182.547 E73.22284
G0 F9000 X85.249 Y181.981
G1 F2100 X109.006 Y205.739 E75.47177
G0 F9000 X109.572 Y205.739
G1 F2100 X85.249 Y181.416 E77.77423
G0 F9000 X85.249 Y180.85
G1 F2100 X110.138 Y205.739 E80.13027
G0 F9000 X110.703 Y205.739
G1 F2100 X85.249 Y180.284 E82.53984
G0 F9000 X85.249 Y179.718
G1 F2100 X111.269 Y205.739 E85.00299
G0 F9000 X111.835 Y205.739
G1 F2100 X85.249 Y179.153 E87.51967
G0 F9000 X85.249 Y178.587
G1 F2100 X112.4 Y205.739 E90.08988
G0 F9000 X112.966 Y205.739
G1 F2100 X85.249 Y178.021 E92.71367
G0 F9000 X85.249 Y177.456
G1 F2100 X113.532 Y205.739 E95.39099
G0 F9000 X114.098 Y205.739
G1 F2100 X85.249 Y176.89 E98.12189
G0 F9000 X85.249 Y176.324
G1 F2100 X114.663 Y205.739 E100.90632
G0 F9000 X115.229 Y205.739
G1 F2100 X85.249 Y175.759 E103.74428
G0 F9000 X85.249 Y175.193
G1 F2100 X115.795 Y205.739 E106.63582
G0 F9000 X116.36 Y205.739
G1 F2100 X85.249 Y174.627 E109.58089
G0 F9000 X85.249 Y174.062
G1 F2100 X116.926 Y205.739 E112.57949
G0 F9000 X117.492 Y205.739
G1 F2100 X85.249 Y173.496 E115.63167
G0 F9000 X85.249 Y172.93
G1 F2100 X118.057 Y205.739 E118.73739
G0 F9000 X118.623 Y205.739
G1 F2100 X85.249 Y172.365 E121.89663
G0 F9000 X85.249 Y171.799
G1 F2100 X119.189 Y205.739 E125.10945
G0 F9000 X119.754 Y205.739
G1 F2100 X85.249 Y171.233 E128.37581
G0 F9000 X85.249 Y170.667
G1 F2100 X120.32 Y205.739 E131.69574
G0 F9000 X120.886 Y205.739
G1 F2100 X85.249 Y170.102 E135.0692
G0 F9000 X85.249 Y169.536
G1 F2100 X121.451 Y205.739 E138.4962
G0 F9000 X122.017 Y205.739
G1 F2100 X85.249 Y168.97 E141.97677
G0 F9000 X85.249 Y168.405
G1 F2100 X122.583 Y205.739 E145.51088
G0 F9000 X123.149 Y205.739
G1 F2100 X85.249 Y167.839 E149.09856
G0 F9000 X85.249 Y167.273
G1 F2100 X123.714 Y205.739 E152.73977
G0 F9000 X124.28 Y205.739
G1 F2100 X85.249 Y166.708 E156.43452
G0 F9000 X85.249 Y166.142
G1 F2100 X124.846 Y205.739 E160.18284
G0 F9000 X125.411 Y205.739
G1 F2100 X85.249 Y165.576 E163.9847
G0 F9000 X85.249 Y165.011
G1 F2100 X125.977 Y205.739 E167.84009
G0 F9000 X126.543 Y205.739
G1 F2100 X85.249 Y164.445 E171.74905
G0 F9000 X85.249 Y163.879
G1 F2100 X127.108 Y205.739 E175.71155
G0 F9000 X127.674 Y205.739
G1 F2100 X85.249 Y163.314 E179.72758
G0 F9000 X85.74 Y163.239
G1 F2100 X128.24 Y205.739 E183.7507
G0 F9000 X128.805 Y205.739
G1 F2100 X86.305 Y163.239 E187.77383
G0 F9000 X86.871 Y163.239
G1 F2100 X129.371 Y205.739 E191.79696
G0 F9000 X129.937 Y205.739
G1 F2100 X87.437 Y163.239 E195.82009
G0 F9000 X88.002 Y163.239
G1 F2100 X130.502 Y205.739 E199.84322
G0 F9000 X131.068 Y205.739
G1 F2100 X88.568 Y163.239 E203.86634
G0 F9000 X89.134 Y163.239
G1 F2100 X131.634 Y205.739 E207.88947
G0 F9000 X132.199 Y205.739
G1 F2100 X89.7 Y163.239 E211.91255
G0 F9000 X90.265 Y163.239
G1 F2100 X132.765 Y205.739 E215.93568
G0 F9000 X133.331 Y205.739
G1 F2100 X90.831 Y163.239 E219.95881
G0 F9000 X91.397 Y163.239
G1 F2100 X133.897 Y205.739 E223.98193
G0 F9000 X134.462 Y205.739
G1 F2100 X91.962 Y163.239 E228.00506
G0 F9000 X92.528 Y163.239
G1 F2100 X135.028 Y205.739 E232.02819
G0 F9000 X135.594 Y205.739
G1 F2100 X93.094 Y163.239 E236.05132
G0 F9000 X93.659 Y163.239
G1 F2100 X136.159 Y205.739 E240.07445
G0 F9000 X136.725 Y205.739
G1 F2100 X94.225 Y163.239 E244.09757
G0 F9000 X94.791 Y163.239
G1 F2100 X137.291 Y205.739 E248.1207
G0 F9000 X137.856 Y205.739
G1 F2100 X95.356 Y163.239 E252.14383
G0 F9000 X95.922 Y163.239
G1 F2100 X138.422 Y205.739 E256.16696
G0 F9000 X138.988 Y205.739
G1 F2100 X96.488 Y163.239 E260.19008
G0 F9000 X97.053 Y163.239
G1 F2100 X139.553 Y205.739 E264.21321
G0 F9000 X140.119 Y205.739
G1 F2100 X97.619 Y163.239 E268.23634
G0 F9000 X98.185 Y163.239
G1 F2100 X140.685 Y205.739 E272.25947
G0 F9000 X141.25 Y205.739
G1 F2100 X98.75 Y163.239 E276.2826
G0 F9000 X99.316 Y163.239
G1 F2100 X141.816 Y205.739 E280.30572
G0 F9000 X142.382 Y205.739
G1 F2100 X99.882 Y163.239 E284.32885
G0 F9000 X100.448 Y163.239
G1 F2100 X142.947 Y205.739 E288.35193
G0 F9000 X143.513 Y205.739
G1 F2100 X101.013 Y163.239 E292.37506
G0 F9000 X101.579 Y163.239
G1 F2100 X144.079 Y205.739 E296.39819
G0 F9000 X144.645 Y205.739
G1 F2100 X102.145 Y163.239 E300.42132
G0 F9000 X102.71 Y163.239
G1 F2100 X145.21 Y205.739 E304.44444
G0 F9000 X145.776 Y205.739
G1 F2100 X103.276 Y163.239 E308.46757
G0 F9000 X103.842 Y163.239
G1 F2100 X146.342 Y205.739 E312.4907
G0 F9000 X146.907 Y205.739
G1 F2100 X104.407 Y163.239 E316.51383
G0 F9000 X104.973 Y163.239
G1 F2100 X147.473 Y205.739 E320.53695
G0 F9000 X148.039 Y205.739
G1 F2100 X105.539 Y163.239 E324.56008
G0 F9000 X106.104 Y163.239
G1 F2100 X148.604 Y205.739 E328.58321
G0 F9000 X149.17 Y205.739
G1 F2100 X106.67 Y163.239 E332.60634
G0 F9000 X107.236 Y163.239
G1 F2100 X149.736 Y205.739 E336.62947
G0 F9000 X149.75 Y205.187
G1 F2100 X107.801 Y163.239 E340.60039
G0 F9000 X108.367 Y163.239
G1 F2100 X149.75 Y204.621 E344.51773
G0 F9000 X149.75 Y204.056
G1 F2100 X108.933 Y163.239 E348.38154
G0 F9000 X109.499 Y163.239
G1 F2100 X149.75 Y203.49 E352.19178
G0 F9000 X149.75 Y202.924
G1 F2100 X110.064 Y163.239 E355.94848
G0 F9000 X110.63 Y163.239
G1 F2100 X149.75 Y202.359 E359.65165
G0 F9000 X149.75 Y201.793
G1 F2100 X111.196 Y163.239 E363.30124
G0 F9000 X111.761 Y163.239
G1 F2100 X149.75 Y201.227 E366.8973
G0 F9000 X149.75 Y200.662
G1 F2100 X112.327 Y163.239 E370.43983
G0 F9000 X112.893 Y163.239
G1 F2100 X149.75 Y200.096 E373.92878
G0 F9000 X149.75 Y199.53
G1 F2100 X113.458 Y163.239 E377.3642
G0 F9000 X114.024 Y163.239
G1 F2100 X149.75 Y198.964 E380.74604
G0 F9000 X149.75 Y198.399
G1 F2100 X114.59 Y163.239 E384.07435
G0 F9000 X115.155 Y163.239
G1 F2100 X149.75 Y197.833 E387.34913
G0 F9000 X149.75 Y197.267
G1 F2100 X115.721 Y163.239 E390.57033
G0 F9000 X116.287 Y163.239
G1 F2100 X149.75 Y196.702 E393.738
G0 F9000 X149.75 Y196.136
G1 F2100 X116.852 Y163.239 E396.85214
G0 F9000 X117.418 Y163.239
G1 F2100 X149.75 Y195.57 E399.9127
G0 F9000 X149.75 Y195.005
G1 F2100 X117.984 Y163.239 E402.91972
G0 F9000 X118.549 Y163.239
G1 F2100 X149.75 Y194.439 E405.87322
G0 F9000 X149.75 Y193.873
G1 F2100 X119.115 Y163.239 E408.77314
G0 F9000 X119.681 Y163.239
G1 F2100 X149.75 Y193.308 E411.61953
G0 F9000 X149.75 Y192.742
G1 F2100 X120.247 Y163.239 E414.41233
G0 F9000 X120.812 Y163.239
G1 F2100 X149.75 Y192.176 E417.15161
G0 F9000 X149.75 Y191.611
G1 F2100 X121.378 Y163.239 E419.83736
G0 F9000 X121.944 Y163.239
G1 F2100 X149.75 Y191.045 E422.46952
G0 F9000 X149.75 Y190.479
G1 F2100 X122.509 Y163.239 E425.04816
G0 F9000 X123.075 Y163.239
G1 F2100 X149.75 Y189.914 E427.57326
G0 F9000 X149.75 Y189.348
G1 F2100 X123.641 Y163.239 E430.04479
G0 F9000 X124.206 Y163.239
G1 F2100 X149.75 Y188.782 E432.46278
G0 F9000 X149.75 Y188.216
G1 F2100 X124.772 Y163.239 E434.8272
G0 F9000 X125.338 Y163.239
G1 F2100 X149.75 Y187.651 E437.13808
G0 F9000 X149.75 Y187.085
G1 F2100 X125.903 Y163.239 E439.39544
G0 F9000 X126.469 Y163.239
G1 F2100 X149.75 Y186.519 E441.59921
G0 F9000 X149.75 Y185.954
G1 F2100 X127.035 Y163.239 E443.74945
G0 F9000 X127.6 Y163.239
G1 F2100 X149.75 Y185.388 E445.84617
G0 F9000 X149.75 Y184.822
G1 F2100 X128.166 Y163.239 E447.8893
G0 F9000 X128.732 Y163.239
G1 F2100 X149.75 Y184.257 E449.8789
G0 F9000 X149.75 Y183.691
G1 F2100 X129.298 Y163.239 E451.81493
G0 F9000 X129.863 Y163.239
G1 F2100 X149.75 Y183.125 E453.69742
G0 F9000 X149.75 Y182.56
G1 F2100 X130.429 Y163.239 E455.52638
G0 F9000 X130.995 Y163.239
G1 F2100 X149.75 Y181.994 E457.30176
G0 F9000 X149.75 Y181.428
G1 F2100 X131.56 Y163.239 E459.02361
G0 F9000 X132.126 Y163.239
G1 F2100 X149.75 Y180.863 E460.69193
G0 F9000 X149.75 Y180.297
G1 F2100 X132.692 Y163.239 E462.30668
G0 F9000 X133.257 Y163.239
G1 F2100 X149.75 Y179.731 E463.86789
G0 F9000 X149.75 Y179.166
G1 F2100 X133.823 Y163.239 E465.37556
G0 F9000 X134.389 Y163.239
G1 F2100 X149.75 Y178.6 E466.82967
G0 F9000 X149.75 Y178.034
G1 F2100 X134.954 Y163.239 E468.23023
G0 F9000 X135.52 Y163.239
G1 F2100 X149.75 Y177.468 E469.57722
G0 F9000 X149.75 Y176.903
G1 F2100 X136.086 Y163.239 E470.87068
G0 F9000 X136.651 Y163.239
G1 F2100 X149.75 Y176.337 E472.11061
G0 F9000 X149.75 Y175.771
G1 F2100 X137.217 Y163.239 E473.29696
G0 F9000 X137.783 Y163.239
G1 F2100 X149.75 Y175.206 E474.42978
G0 F9000 X149.75 Y174.64
G1 F2100 X138.348 Y163.239 E475.50907
G0 F9000 X138.914 Y163.239
G1 F2100 X149.75 Y174.074 E476.53477
G0 F9000 X149.75 Y173.509
G1 F2100 X139.48 Y163.239 E477.50695
G0 F9000 X140.046 Y163.239
G1 F2100 X149.75 Y172.943 E478.42555
G0 F9000 X149.75 Y172.377
G1 F2100 X140.611 Y163.239 E479.29062
G0 F9000 X141.177 Y163.239
G1 F2100 X149.75 Y171.812 E480.10215
G0 F9000 X149.75 Y171.246
G1 F2100 X141.743 Y163.239 E480.86011
G0 F9000 X142.308 Y163.239
G1 F2100 X149.75 Y170.68 E481.56454
G0 F9000 X149.75 Y170.115
G1 F2100 X142.874 Y163.239 E482.21543
G0 F9000 X143.44 Y163.239
G1 F2100 X149.75 Y169.549 E482.81275
G0 F9000 X149.75 Y168.983
G1 F2100 X144.005 Y163.239 E483.35653
G0 F9000 X144.571 Y163.239
G1 F2100 X149.75 Y168.417 E483.84674
G0 F9000 X149.75 Y167.852
G1 F2100 X145.137 Y163.239 E484.28341
G0 F9000 X145.702 Y163.239
G1 F2100 X149.75 Y167.286 E484.66656
G0 F9000 X149.75 Y166.72
G1 F2100 X146.268 Y163.239 E484.99612
G0 F9000 X146.834 Y163.239
G1 F2100 X149.75 Y166.155 E485.27216
G0 F9000 X149.75 Y165.589
G1 F2100 X147.399 Y163.239 E485.49466
G0 F9000 X147.965 Y163.239
G1 F2100 X149.75 Y165.023 E485.66358
G0 F9000 X149.75 Y164.458
G1 F2100 X148.531 Y163.239 E485.77898
G0 F9000 X149.097 Y163.239
G1 F2100 X149.75 Y163.892 E485.84079
G0 F9000 X149.75 Y163.326
G1 F2100 X149.662 Y163.239 E485.84907
G1 F2700 E480.84907
G0 F9000 X149.662 Y162.89
G0 X84.882 Y162.872
G0 X84.877 Y206.101
G0 X83.52 Y206.08
G0 X83.5 Y206.15
G0 X83.64 Y206.29
;TYPE:WALL-OUTER
G1 F2700 E485.84907
G1 F2100 X18.04 Y206.29 E489.66734
G1 X18.04 Y162.69 E492.20508
G1 X83.64 Y162.69 E496.02335
G1 X83.64 Y206.29 E498.5611
G0 F9000 X83.25 Y205.9
;TYPE:SKIN
G1 F2100 X18.43 Y205.9 E502.89989
G1 X18.43 Y163.08 E505.76609
G1 X83.25 Y163.08 E510.10488
G1 X83.25 Y205.9 E512.97108
G1 F2700 E507.97108
G0 F9000 X83.53 Y205.9
G0 X83.53 Y163.417
G0 X83.089 Y163.417
G1 F2700 E512.97108
G1 F2100 X82.911 Y163.239 E512.98793
G0 F9000 X82.346 Y163.239
G1 F2100 X83.089 Y163.983 E513.05831
G0 F9000 X83.089 Y164.548
G1 F2100 X81.78 Y163.239 E513.18223
G0 F9000 X81.214 Y163.239
G1 F2100 X83.089 Y165.114 E513.35972
G0 F9000 X83.089 Y165.68
G1 F2100 X80.649 Y163.239 E513.59074
G0 F9000 X80.083 Y163.239
G1 F2100 X83.089 Y166.245 E513.87529
G0 F9000 X83.089 Y166.811
G1 F2100 X79.517 Y163.239 E514.21343
G0 F9000 X78.952 Y163.239
G1 F2100 X83.089 Y167.377 E514.60509
G0 F9000 X83.089 Y167.942
G1 F2100 X78.386 Y163.239 E515.05028
G0 F9000 X77.82 Y163.239
G1 F2100 X83.089 Y168.508 E515.54906
G0 F9000 X83.089 Y169.074
G1 F2100 X77.254 Y163.239 E516.10141
G0 F9000 X76.689 Y163.239
G1 F2100 X83.089 Y169.639 E516.70724
G0 F9000 X83.089 Y170.205
G1 F2100 X76.123 Y163.239 E517.36666
G0 F9000 X75.557 Y163.239
G1 F2100 X83.089 Y170.771 E518.07965
G0 F9000 X83.089 Y171.336
G1 F2100 X74.992 Y163.239 E518.84613
G0 F9000 X74.426 Y163.239
G1 F2100 X83.089 Y171.902 E519.66618
G0 F9000 X83.089 Y172.468
G1 F2100 X73.86 Y163.239 E520.53982
G0 F9000 X73.295 Y163.239
G1 F2100 X83.089 Y173.033 E521.46694
G0 F9000 X83.089 Y173.599
G1 F2100 X72.729 Y163.239 E522.44763
G0 F9000 X72.163 Y163.239
G1 F2100 X83.089 Y174.165 E523.48191
G0 F9000 X83.089 Y174.731
G1 F2100 X71.598 Y163.239 E524.56971
G0 F9000 X71.032 Y163.239
G1 F2100 X83.089 Y175.296 E525.71105
G0 F9000 X83.089 Y175.862
G1 F2100 X70.466 Y163.239 E526.90597
G0 F9000 X69.901 Y163.239
G1 F2100 X83.089 Y176.428 E528.15441
G0 F9000 X83.089 Y176.993
G1 F2100 X69.335 Y163.239 E529.45639
G0 F9000 X68.769 Y163.239
G1 F2100 X83.089 Y177.559 E530.81195
G0 F9000 X83.089 Y178.125
G1 F2100 X68.203 Y163.239 E532.22109
G0 F9000 X67.638 Y163.239
G1 F2100 X83.089 Y178.69 E533.68371
G0 F9000 X83.089 Y179.256
G1 F2100 X67.072 Y163.239 E535.19991
G0 F9000 X66.506 Y163.239
G1 F2100 X83.089 Y179.822 E536.76968
G0 F9000 X83.089 Y180.387
G1 F2100 X65.941 Y163.239 E538.39294
G0 F9000 X65.375 Y163.239
G1 F2100 X83.089 Y180.953 E540.06978
G0 F9000 X83.089 Y181.519
G1 F2100 X64.809 Y163.239 E541.8002
G0 F9000 X64.244 Y163.239
G1 F2100 X83.089 Y182.084 E543.5841
G0 F9000 X83.089 Y182.65
G1 F2100 X63.678 Y163.239 E545.42158
G0 F9000 X63.112 Y163.239
G1 F2100 X83.089 Y183.216 E547.31264
G0 F9000 X83.089 Y183.782
G1 F2100 X62.547 Y163.239 E549.25723
